X:1
T: Miss Charlotte Campbell
C:Wm. McLeish
R:Reel
Q: 232
K:Bb
M:4/4
L:1/8
|:A|B2 d1/2c1/2B1/2A1/2 B2 FB|GB FD EC CA|Bd cA B2 FB|GB FE DB, B,A|
B2 d1/2c1/2B1/2A1/2 B2 FB|GB FD EC CA|Bd cA B2 FB|GB FE DB, B,g|
fB dB FB Dg|fB dB Ac cg|fB dB FB DF|EG FE DB, B,g|
fB dB FB Dg|fB dB Ac cg|fB AB Ge Fd|EG FE DB, B,:|
